svg/penguin.svg

<svg xmlns="http://www.w3.org/2000/svg" viewBox="0 0 24 24"><path d="M19 16c0 1.72-.63 3.3-1.66 4.5.41.39.66.91.66 1.5H6c0-.59.25-1.11.66-1.5A6.9 6.9 0 0 1 5 16H3c0-1.25.57-2.36 1.46-3.09l.01-.02A6 6 0 0 0 7 8V7a5 5 0 0 1 5-5 5 5 0 0 1 5 5v1c0 2 1 3.81 2.53 4.89l.01.02c.89.73 1.46 1.84 1.46 3.09zm-3 0a4 4 0 0 0-4-4 4 4 0 0 0-4 4 4 4 0 0 0 4 4 4 4 0 0 0 4-4m-6-7 2 1.5L14 9l-2-1.5zm0-4a1 1 0 0 0-1 1 1 1 0 0 0 1 1 1 1 0 0 0 1-1 1 1 0 0 0-1-1m4 0a1 1 0 0 0-1 1 1 1 0 0 0 1 1 1 1 0 0 0 1-1 1 1 0 0 0-1-1"/></svg>

<?xml version="1.0" encoding="UTF-8"?><!DOCTYPE svg PUBLIC "-//W3C//DTD SVG 1.1//EN" "http://www.w3.org/Graphics/SVG/1.1/DTD/svg11.dtd"><svg xmlns="http://www.w3.org/2000/svg" xmlns:xlink="http://www.w3.org/1999/xlink" version="1.1" id="mdi-penguin" width="24" height="24" viewBox="0 0 24 24"><path d="M19,16C19,17.72 18.37,19.3 17.34,20.5C17.75,20.89 18,21.41 18,22H6C6,21.41 6.25,20.89 6.66,20.5C5.63,19.3 5,17.72 5,16H3C3,14.75 3.57,13.64 4.46,12.91L4.47,12.89C6,11.81 7,10 7,8V7A5,5 0 0,1 12,2A5,5 0 0,1 17,7V8C17,10 18,11.81 19.53,12.89L19.54,12.91C20.43,13.64 21,14.75 21,16H19M16,16A4,4 0 0,0 12,12A4,4 0 0,0 8,16A4,4 0 0,0 12,20A4,4 0 0,0 16,16M10,9L12,10.5L14,9L12,7.5L10,9M10,5A1,1 0 0,0 9,6A1,1 0 0,0 10,7A1,1 0 0,0 11,6A1,1 0 0,0 10,5M14,5A1,1 0 0,0 13,6A1,1 0 0,0 14,7A1,1 0 0,0 15,6A1,1 0 0,0 14,5Z" /></svg>
